static/images/spinnaker-logo-inline.svg

<svg height="162" viewBox="0 0 140 162" width="140" xmlns="http://www.w3.org/2000/svg" xmlns:xlink="http://www.w3.org/1999/xlink"><linearGradient id="a"><stop offset="0" stop-color="#2b3990"/><stop offset=".16" stop-color="#1e62a7"/><stop offset=".32" stop-color="#1485bc"/><stop offset=".49" stop-color="#0ba1cc"/><stop offset=".66" stop-color="#05b4d7"/><stop offset=".83" stop-color="#01c0de"/><stop offset="1" stop-color="#00c4e0"/></linearGradient><linearGradient id="b" x1="82.179063%" x2="34.613457%" xlink:href="#a" y1="-.473917%" y2="114.440607%"/><linearGradient id="c" x1="-31668%" x2="-19806%" xlink:href="#a" y1="78954%" y2="78954%"/><g fill="none" fill-rule="evenodd"><path d="m12 119.400688c54.0643784 5.359137 97.475822-26.6192519 108.304838-40.3221754 10.829017-13.7029234-5.590589-79.0785126-5.590589-79.0785126-17.7989123 43.7258523-50.1612374 109.998307-102.714249 119.422742z" fill="url(#b)"/><path d="m37 101.950582c31.890817 1.174018 56.1649203-18.8796871 62.0165144-27.1932064 5.8515936-8.3135194-3.1075006-45.7573756-3.1075006-45.7573756-8.8626805 25.9384738-33.5224402 63.7345356-58.9090138 72.950582z" fill="url(#c)"/><g fill="#149cb5" fill-rule="nonzero"><path d="m2.08069192 147.61817c.9862305 1.023399 2.15910575 1.855807 3.45773167 2.454006 1.28872385.610322 2.7005903.928008 4.13111924.929548 1.51379827.091222 3.01246697-.340146 4.23704537-1.219567.9904594-.770761 1.5516175-1.956558 1.5132305-3.197644.018065-.603903-.1035238-1.203962-.3556092-1.754987-.231085-.471707-.5581194-.891838-.9609013-1.234439-.4409554-.36712-.9263382-.679331-1.4451352-.929548l-1.7856119-.862621-3.94196546-1.688059c-.67505997-.291146-1.3319476-.621406-1.96719963-.989039-.66485945-.379445-1.27122036-.850204-1.80074429-1.39804-.54713303-.571868-.98763933-1.23388-1.30137822-1.955768-.71940798-1.76117-.66739435-3.736076.1437569-5.458306.43089188-.878706 1.0443173-1.658935 1.80074428-2.290406.80509096-.659137 1.72907309-1.163656 2.72381488-1.487276 1.11408749-.366925 2.28282596-.547901 3.45773167-.53542 1.56319377-.010229 3.11070337.306639 4.53969147.929548 1.3322431.574371 2.5415128 1.391958 3.5636578 2.409388l-1.883972 2.230915c-.8136152-.778349-1.7582026-1.412369-2.7919102-1.873968-1.0901837-.465671-2.2692109-.696417-3.45773168-.676711-1.32236873-.06507-2.62922495.303782-3.71498085 1.04853-.92970684.68064-1.45660266 1.769257-1.40730435 2.907626-.0180028.580278.120336 1.154927.40100608 1.665749.28513287.455467.6577625.852015 1.0970921 1.167513.45708896.350021.94884226.653964 1.46783358.907238.52963067.262752 1.07439364.510632 1.63428892.743639l3.9041347 1.650877c.76915.321676 1.5127118.699509 2.2244488 1.13033.6714194.405996 1.2782039.907153 1.8007443 1.487276.5157937.583677.9207085 1.253677 1.1954521 1.978078.3076601.838884.4563928 1.726056.4388368 2.617607.0023851 1.02588-.2195188 2.040289-.6506891 2.974554-.4376848.939674-1.0748989 1.776411-1.8688397 2.454006-.8616173.730465-1.8583306 1.290968-2.9356671 1.650877-1.2551041.414164-2.5727768.61534-3.89656853.594911-3.63920271.030157-7.12968214-1.417428-9.64684437-4.000774z"/><path d="m22.2883342 155.235743v6.764257h-3.2883342v-28.500664h2.7246197l.2818572 2.306843h.1228609c.8848252-.774343 1.855119-1.438723 2.8908432-1.97942 1.0215032-.541761 2.1537409-.824924 3.3027884-.825998 1.148803-.016577 2.2860332.237978 3.3244697.744142.9541811.473578 1.7806467 1.181446 2.406627 2.061276.6698733.970823 1.1598949 2.060657 1.4454216 3.214696.3487114 1.379675.5164252 2.801217.4986704 4.22673.0250017 1.549098-.2046882 3.091389-.6793481 4.561595-.4039138 1.24156-1.0288743 2.394801-1.8429126 3.400731-.7322002.900507-1.647504 1.624489-2.6812571 2.120807-1.0017028.485561-2.0944627.739548-3.2016088.744143-.933362-.005833-1.8548025-.216387-2.7029384-.617639-.9613868-.453554-1.8684288-1.020411-2.7029384-1.689204zm0-6.146618c.7569639.692293 1.6251109 1.243736 2.5656233 1.629672.6905794.286472 1.4241347.447604 2.1681324.476252.7754504.006897 1.5403923-.184895 2.2259493-.558107.6934724-.382471 1.2957813-.918766 1.7634144-1.570141.5310456-.751689.9252805-1.596317 1.1635644-2.492878.2928224-1.087647.433959-2.21264.4191722-3.341201.0056584-.999528-.0887935-1.996992-.2818572-2.97657-.1559967-.828037-.4624996-1.618279-.9033885-2.329167-.4043574-.627469-.9562779-1.13944-1.604418-1.488285-.7259696-.37383-1.5301719-.557841-2.341583-.535783-.8772577.013922-1.7370762.254442-2.5005794.699494-.9729866.566364-1.8798606 1.245467-2.7029384 2.024068z"/><path d="m39.5021485 129.287598c-.6559158.017059-1.2936801-.199994-1.7804572-.605951-.4607158-.402595-.7216913-.96228-.7216913-1.547731s.2609755-1.145136.7216913-1.547731c1.0328408-.78158 2.5201604-.78158 3.5530012 0 .4628352.401512.7253075.961601.7253075 1.547731s-.2624723 1.146219-.7253075 1.547731c-.4843498.404847-1.1192029.621874-1.772544.605951zm-1.8437624 4.044541h3.6004801v19.667861h-3.6004801z"/><path d="m44 133.480418h2.8118081l.2878229 2.811284h.1254613c.903139-.896396 1.9114162-1.684427 3.00369-2.347567 1.1154961-.647986 2.3943303-.974424 3.6900369-.941925 2.100861 0 3.6359163.642441 4.605166 1.927324.9692497 1.284882 1.4612547 3.185638 1.4760148 5.702268v12.368198h-3.3579336v-11.926218c0-1.845207-.300123-3.175977-.900369-3.992312-.6839097-.855091-1.759943-1.315234-2.8634686-1.224503-.9692831-.018306-1.9222591.246489-2.7380074.760786-.974325.658511-1.8791891 1.410958-2.701107 2.246128v14.136119h-3.3579336z"/><path d="m62 133.480468h2.7874307l.2883549 2.811277h.1256931c.9048084-.896394 1.9149494-1.684422 3.0092422-2.347561 1.1174029-.64835 2.39871-.974814 3.6968577-.941922 2.1047443 0 3.6426371.642439 4.6136783 1.927318.9710413 1.284879 1.4639557 3.18563 1.4787431 5.702254v12.368166h-3.4306839v-11.926187c0-1.845202-.3006778-3.17597-.9020333-3.992303-.6851739-.855088-1.7631962-1.31523-2.8687615-1.224499-.9710748-.018306-1.9258123.246488-2.7430684.760784-.976126.658509-1.8826627 1.410954-2.7060999 2.246122v14.136083h-3.349353z"/><path d="m80.0079153 148.312629c-.0499102-2.109742 1.1207841-4.064769 3.0207026-5.04449 2.0138016-1.168875 5.1880565-1.986098 9.5227647-2.451667.0004856-.621309-.0627662-1.24108-.1887939-1.849894-.1149958-.573065-.3433592-1.118307-.6721064-1.604727-.3280455-.470937-.7655757-.858073-1.2762468-1.129252-.6368597-.311578-1.3434194-.459799-2.0540777-.430899-1.1448524-.010704-2.2792994.21453-3.3303245.661207-.9597352.408354-1.8776601.905897-2.7412876 1.485858l-1.3819714-2.347656c1.1034889-.683426 2.2658969-1.270121 3.4738079-1.753313 1.4375575-.57765 2.9783208-.865647 4.5310538-.84694 2.4820106 0 4.2818459.74293 5.3995058 2.228788 1.1965718 1.767725 1.7842725 3.866847 1.6764899 5.98801v12.280621h-2.8470121l-.2945185-2.384803h-.0830694c-.9717282.792263-2.0305287 1.475054-3.1566341 2.035626-1.1077092.558414-2.3348612.848765-3.5795325.84694-1.5692584.05558-3.101737-.475275-4.2893976-1.485859-1.1825026-1.076406-1.8163646-2.614941-1.7293522-4.19755zm3.3907386-.245167c-.0943491.940964.2900846 1.866997 1.0270389 2.473955.7389446.511245 1.6269406.77202 2.5298383.742929.9718465.000915 1.9289406-.23384 2.7865981-.683495 1.0116938-.546529 1.9481611-1.21814 2.7865981-1.99848v-5.557111c-1.4522286.172935-2.8922904.433451-4.3120529.780076-.9858557.230716-1.9357842.590533-2.8243568 1.069818-.6211634.3346-1.1420157.823947-1.5103513 1.418995-.3151927.532388-.4819155 1.137208-.4833124 1.753313z"/><path d="m97 124h3.40455v19.637101h.128902l8.697146-10.428535h3.791257l-6.824264 7.9445 7.802409 11.846934h-3.791258l-5.96744-9.553979-3.791257 4.321338v5.210593h-3.4045499z"/><path d="m111.003085 143.58513c-.03435-1.517875.218419-3.028627.745105-4.453357.46108-1.220334 1.148609-2.343323 2.026687-3.310328.80413-.880153 1.780313-1.58736 2.868655-2.078233 1.049176-.482536 2.189937-.735621 3.345523-.742226 1.168789-.017864 2.328489.207113 3.405131.660582.979809.420404 1.843628 1.069583 2.518456 1.892676.704943.880188 1.231321 1.888541 1.549819 2.968904.372364 1.254933.553211 2.558501.536475 3.866998.0073.618426-.035057 1.236443-.126667 1.848143h-13.501308c.02953 1.898058.740583 3.722801 2.004333 5.143626 1.217856 1.270648 2.924405 1.959819 4.686712 1.892676.907383.010214 1.809747-.135414 2.667477-.430491.816695-.28944 1.598824-.667792 2.33218-1.128183l1.199619 2.226678c-.930224.572152-1.913276 1.054323-2.935715 1.439918-1.176117.428209-2.421332.63704-3.673369.616048-1.29602.002941-2.579846-.2493-3.777683-.742226-1.150633-.466479-2.191058-1.166684-3.054932-2.055966-.897518-.940947-1.592293-2.054859-2.041589-3.273217-.520098-1.388663-.782662-2.859882-.774909-4.342022zm14.045235-1.521564c0-2.05844-.434645-3.629485-1.303935-4.713135-.887944-1.09399-2.24807-1.698301-3.658467-1.625475-.703492-.002501-1.399454.14425-2.041588.430491-.659753.295078-1.256658.713312-1.758449 1.232095-.550635.574374-.992395 1.243255-1.303934 1.974322-.362761.858348-.591426 1.766973-.678046 2.69428z"/><path d="m129.007397 133.450681h2.788837l.2885 3.541228h.125757c.607408-1.128635 1.452061-2.117975 2.478144-2.902646.905304-.703485 2.025973-1.086973 3.180901-1.088492.730599-.012341 1.455917.123537 2.130464.399114l-.658373 2.902646c-.295716-.097327-.597079-.177292-.902488-.239468-.339367-.058731-.683685-.085461-1.028245-.079823-.971573.042525-1.902016.396909-2.648285 1.008669-1.10392.934215-1.931697 2.142217-2.396772 3.497688v12.510403h-3.365837z"/></g></g></svg>

<?xml version="1.0" encoding="UTF-8"?>
<svg width="140px" height="162px" viewBox="0 0 140 162" version="1.1" xmlns="http://www.w3.org/2000/svg" xmlns:xlink="http://www.w3.org/1999/xlink">
    <!-- Generator: Sketch 44.1 (41455) - http://www.bohemiancoding.com/sketch -->
    <title>spinnaker-logo-inline</title>
    <desc>Created with Sketch.</desc>
    <defs>
        <linearGradient x1="82.1790632%" y1="-0.473917274%" x2="34.6134572%" y2="114.440607%" id="linearGradient-1">
            <stop stop-color="#2B3990" offset="0%"></stop>
            <stop stop-color="#1E62A7" offset="16%"></stop>
            <stop stop-color="#1485BC" offset="32%"></stop>
            <stop stop-color="#0BA1CC" offset="49%"></stop>
            <stop stop-color="#05B4D7" offset="66%"></stop>
            <stop stop-color="#01C0DE" offset="83%"></stop>
            <stop stop-color="#00C4E0" offset="100%"></stop>
        </linearGradient>
        <linearGradient x1="-31668%" y1="78954%" x2="-19806%" y2="78954%" id="linearGradient-2">
            <stop stop-color="#2B3990" offset="0%"></stop>
            <stop stop-color="#1E62A7" offset="16%"></stop>
            <stop stop-color="#1485BC" offset="32%"></stop>
            <stop stop-color="#0BA1CC" offset="49%"></stop>
            <stop stop-color="#05B4D7" offset="66%"></stop>
            <stop stop-color="#01C0DE" offset="83%"></stop>
            <stop stop-color="#00C4E0" offset="100%"></stop>
        </linearGradient>
    </defs>
    <g id="Home-page" stroke="none" stroke-width="1" fill="none" fill-rule="evenodd">
        <g id="Desktop" transform="translate(-809.000000, -414.000000)">
            <g id="Group-3" transform="translate(75.000000, 402.000000)">
                <g id="Group-2" transform="translate(734.000000, 12.000000)">
                    <path d="M12,119.400688 C66.0643784,124.759825 109.475822,92.7814361 120.304838,79.0785126 C131.133855,65.3755892 114.714249,0 114.714249,0 C96.9153367,43.7258523 64.5530116,109.998307 12,119.422742 L12,119.400688 Z" id="Shape" fill="url(#linearGradient-1)" style="mix-blend-mode: multiply;"></path>
                    <path d="M37,101.950582 C68.890817,103.1246 93.1649203,83.0708949 99.0165144,74.7573756 C104.868108,66.4438562 95.9090138,29 95.9090138,29 C87.0463333,54.9384738 62.3865736,92.7345356 37,101.950582 Z" id="Shape" fill="url(#linearGradient-2)" style="mix-blend-mode: multiply;"></path>
                    <path d="M2.08069192,147.61817 C3.06692242,148.641569 4.23979767,149.473977 5.53842359,150.072176 C6.82714744,150.682498 8.23901389,151.000184 9.66954283,151.001724 C11.1833411,151.092946 12.6820098,150.661578 13.9065882,149.782157 C14.8970476,149.011396 15.4582057,147.825599 15.4198187,146.584513 C15.4378837,145.98061 15.3162949,145.380551 15.0642095,144.829526 C14.8331245,144.357819 14.5060901,143.937688 14.1033082,143.595087 C13.6623528,143.227967 13.17697,142.915756 12.658173,142.665539 L10.8725611,141.802918 L6.93059564,140.114859 C6.25553567,139.823713 5.59864804,139.493453 4.96339601,139.12582 C4.29853656,138.746375 3.69217565,138.275616 3.16265172,137.72778 C2.61551869,137.155912 2.17501239,136.4939 1.8612735,135.772012 C1.14186552,134.010842 1.19387915,132.035936 2.0050304,130.313706 C2.43592228,129.435 3.0493477,128.654771 3.80577468,128.0233 C4.61086564,127.364163 5.53484777,126.859644 6.52958956,126.536024 C7.64367705,126.169099 8.81241552,125.988123 9.98732123,126.000604 C11.550515,125.990375 13.0980246,126.307243 14.5270127,126.930152 C15.8592558,127.504523 17.0685255,128.32211 18.0906705,129.33954 L16.2066985,131.570455 C15.3930833,130.792106 14.4484959,130.158086 13.4147883,129.696487 C12.3246046,129.230816 11.1455774,129.00007 9.95705662,129.019776 C8.63468789,128.954706 7.32783167,129.323558 6.24207577,130.068306 C5.31236893,130.748946 4.78547311,131.837563 4.83477142,132.975932 C4.81676862,133.55621 4.95510742,134.130859 5.2357775,134.641681 C5.52091037,135.097148 5.89354,135.493696 6.3328696,135.809194 C6.78995856,136.159215 7.28171186,136.463158 7.80070318,136.716432 C8.33033385,136.979184 8.87509682,137.227064 9.4349921,137.460071 L13.3391268,139.110948 C14.1082768,139.432624 14.8518386,139.810457 15.5635756,140.241278 C16.234995,140.647274 16.8417795,141.148431 17.3643199,141.728554 C17.8801136,142.312231 18.2850284,142.982231 18.559772,143.706632 C18.8674321,144.545516 19.0161648,145.432688 18.9986088,146.324239 C19.0009939,147.350119 18.77909,148.364528 18.3479197,149.298793 C17.9102349,150.238467 17.2730208,151.075204 16.47908,151.752799 C15.6174627,152.483264 14.6207494,153.043767 13.5434129,153.403676 C12.2883088,153.81784 10.9706361,154.019016 9.64684437,153.998587 C6.00764166,154.028744 2.51716223,152.581159 0,149.997813 L2.08069192,147.61817 Z" id="Shape" fill="#149CB5" fill-rule="nonzero"></path>
                    <path d="M22.2883342,155.235743 L22.2883342,162 L19,162 L19,133.499336 L21.7246197,133.499336 L22.0064769,135.806179 L22.1293378,135.806179 C23.014163,135.031836 23.9844568,134.367456 25.020181,133.826759 C26.0416842,133.284998 27.1739219,133.001835 28.3229694,133.000761 C29.4717724,132.984184 30.6090026,133.238739 31.6474391,133.744903 C32.6016202,134.218481 33.4280858,134.926349 34.0540661,135.806179 C34.7239394,136.777002 35.213961,137.866836 35.4994877,139.020875 C35.8481991,140.40055 36.0159129,141.822092 35.9981581,143.247605 C36.0231598,144.796703 35.7934699,146.338994 35.31881,147.8092 C34.9148962,149.05076 34.2899357,150.204001 33.4758974,151.209931 C32.7436972,152.110438 31.8283934,152.83442 30.7946403,153.330738 C29.7929375,153.816299 28.7001776,154.070286 27.5930315,154.074881 C26.6596695,154.069048 25.738229,153.858494 24.8900931,153.457242 C23.9287063,153.003688 23.0216643,152.436831 22.1871547,151.768038 L22.2883342,155.235743 Z M22.2883342,149.089125 C23.0452981,149.781418 23.9134451,150.332861 24.8539575,150.718797 C25.5445369,151.005269 26.2780922,151.166401 27.0220899,151.195049 C27.7975403,151.201946 28.5624822,151.010154 29.2480392,150.636942 C29.9415116,150.254471 30.5438205,149.718176 31.0114536,149.066801 C31.5424992,148.315112 31.9367341,147.470484 32.175018,146.573923 C32.4678404,145.486276 32.608977,144.361283 32.5941902,143.232722 C32.5998486,142.233194 32.5053967,141.23573 32.312333,140.256152 C32.1563363,139.428115 31.8498334,138.637873 31.4089445,137.926985 C31.0045871,137.299516 30.4526666,136.787545 29.8045265,136.4387 C29.0785569,136.06487 28.2743546,135.880859 27.4629435,135.902917 C26.5856858,135.916839 25.7258673,136.157359 24.9623641,136.602411 C23.9893775,137.168775 23.0825035,137.847878 22.2594257,138.626479 L22.2883342,149.089125 Z" id="Shape" fill="#149CB5" fill-rule="nonzero"></path>
                    <path d="M39.5021485,129.287598 C38.8462327,129.304657 38.2084684,129.087604 37.7216913,128.681647 C37.2609755,128.279052 37,127.719367 37,127.133916 C37,126.548465 37.2609755,125.98878 37.7216913,125.586185 C38.7545321,124.804605 40.2418517,124.804605 41.2746925,125.586185 C41.7375277,125.987697 42,126.547786 42,127.133916 C42,127.720046 41.7375277,128.280135 41.2746925,128.681647 C40.7903427,129.086494 40.1554896,129.303521 39.5021485,129.287598 Z M37.6583861,133.332139 L41.2588662,133.332139 L41.2588662,153 L37.6583861,153 L37.6583861,133.332139 Z" id="Shape" fill="#149CB5" fill-rule="nonzero"></path>
                    <path d="M44,133.480418 L46.8118081,133.480418 L47.099631,136.291702 L47.2250923,136.291702 C48.1282313,135.395306 49.1365085,134.607275 50.2287823,133.944135 C51.3442784,133.296149 52.6231126,132.969711 53.9188192,133.00221 C56.0196802,133.00221 57.5547355,133.644651 58.5239852,134.929534 C59.4932349,136.214416 59.9852399,138.115172 60,140.631802 L60,153 L56.6420664,153 L56.6420664,141.073782 C56.6420664,139.228575 56.3419434,137.897805 55.7416974,137.08147 C55.0577877,136.226379 53.9817544,135.766236 52.8782288,135.856967 C51.9089457,135.838661 50.9559697,136.103456 50.1402214,136.617753 C49.1658964,137.276264 48.2610323,138.028711 47.4391144,138.863881 L47.4391144,153 L44.0811808,153 L44,133.480418 Z" id="Shape" fill="#149CB5" fill-rule="nonzero"></path>
                    <path d="M62,133.480468 L64.7874307,133.480468 L65.0757856,136.291745 L65.2014787,136.291745 C66.1062871,135.395351 67.1164281,134.607323 68.2107209,133.944184 C69.3281238,133.295834 70.6094309,132.96937 71.9075786,133.002262 C74.0123229,133.002262 75.5502157,133.644701 76.5212569,134.92958 C77.4922982,136.214459 77.9852126,138.11521 78,140.631834 L78,153 L74.5693161,153 L74.5693161,141.073813 C74.5693161,139.228611 74.2686383,137.897843 73.6672828,137.08151 C72.9821089,136.226422 71.9040866,135.76628 70.7985213,135.857011 C69.8274465,135.838705 68.872709,136.103499 68.0554529,136.617795 C67.0793269,137.276304 66.1727902,138.028749 65.349353,138.863917 L65.349353,153 L62,153 L62,133.480468 Z" id="Shape" fill="#149CB5" fill-rule="nonzero"></path>
                    <path d="M80.0079153,148.312629 C79.9580051,146.202887 81.1286994,144.24786 83.0286179,143.268139 C85.0424195,142.099264 88.2166744,141.282041 92.5513826,140.816472 C92.5518682,140.195163 92.4886164,139.575392 92.3625887,138.966578 C92.2475929,138.393513 92.0192295,137.848271 91.6904823,137.361851 C91.3624368,136.890914 90.9249066,136.503778 90.4142355,136.232599 C89.7773758,135.921021 89.0708161,135.7728 88.3601578,135.8017 C87.2153054,135.790996 86.0808584,136.01623 85.0298333,136.462907 C84.0700981,136.871261 83.1521732,137.368804 82.2885457,137.948765 L80.9065743,135.601109 C82.0100632,134.917683 83.1724712,134.330988 84.3803822,133.847796 C85.8179397,133.270146 87.358703,132.982149 88.911436,133.000856 C91.3934466,133.000856 93.1932819,133.743786 94.3109418,135.229644 C95.5075136,136.997369 96.0952143,139.096491 95.9874317,141.217654 L95.9874317,153.498275 L93.1404196,153.498275 L92.8459011,151.113472 L92.7628317,151.113472 C91.7911035,151.905735 90.732303,152.588526 89.6061976,153.149098 C88.4984884,153.707512 87.2713364,153.997863 86.0266651,153.996038 C84.4574067,154.051618 82.9249281,153.520763 81.7372675,152.510179 C80.5547649,151.433773 79.9209029,149.895238 80.0079153,148.312629 Z M83.3986539,148.067462 C83.3043048,149.008426 83.6887385,149.934459 84.4256928,150.541417 C85.1646374,151.052662 86.0526334,151.313437 86.9555311,151.284346 C87.9273776,151.285261 88.8844717,151.050506 89.7421292,150.600851 C90.753823,150.054322 91.6902903,149.382711 92.5287273,148.602371 L92.5287273,143.04526 C91.0764987,143.218195 89.6364369,143.478711 88.2166744,143.825336 C87.2308187,144.056052 86.2808902,144.415869 85.3923176,144.895154 C84.7711542,145.229754 84.2503019,145.719101 83.8819663,146.314149 C83.5667736,146.846537 83.4000508,147.451357 83.3986539,148.067462 L83.3986539,148.067462 Z" id="Shape" fill="#149CB5" fill-rule="nonzero"></path>
                    <polygon id="Shape" fill="#149CB5" fill-rule="nonzero" points="97 124 100.40455 124 100.40455 143.637101 100.533452 143.637101 109.230598 133.208566 113.021855 133.208566 106.197591 141.153066 114 153 110.208742 153 104.241302 143.446021 100.450045 147.767359 100.450045 152.977952 97.0454951 152.977952"></polygon>
                    <path d="M111.003085,143.58513 C110.968735,142.067255 111.221504,140.556503 111.74819,139.131773 C112.20927,137.911439 112.896799,136.78845 113.774877,135.821445 C114.579007,134.941292 115.55519,134.234085 116.643532,133.743212 C117.692708,133.260676 118.833469,133.007591 119.989055,133.000986 C121.157844,132.983122 122.317544,133.208099 123.394186,133.661568 C124.373995,134.081972 125.237814,134.731151 125.912642,135.554244 C126.617585,136.434432 127.143963,137.442785 127.462461,138.523148 C127.834825,139.778081 128.015672,141.081649 127.998936,142.390146 C128.006236,143.008572 127.963879,143.626589 127.872269,144.238289 L114.370961,144.238289 C114.400491,146.136347 115.111544,147.96109 116.375294,149.381915 C117.59315,150.652563 119.299699,151.341734 121.062006,151.274591 C121.969389,151.284805 122.871753,151.139177 123.729483,150.8441 C124.546178,150.55466 125.328307,150.176308 126.061663,149.715917 L127.261282,151.942595 C126.331058,152.514747 125.348006,152.996918 124.325567,153.382513 C123.14945,153.810722 121.904235,154.019553 120.652198,153.998561 C119.356178,154.001502 118.072352,153.749261 116.874515,153.256335 C115.723882,152.789856 114.683457,152.089651 113.819583,151.200369 C112.922065,150.259422 112.22729,149.14551 111.777994,147.927152 C111.257896,146.538489 110.995332,145.06727 111.003085,143.58513 L111.003085,143.58513 Z M125.04832,142.063566 C125.04832,140.005126 124.613675,138.434081 123.744385,137.350431 C122.856441,136.256441 121.496315,135.65213 120.085918,135.724956 C119.382426,135.722455 118.686464,135.869206 118.04433,136.155447 C117.384577,136.450525 116.787672,136.868759 116.285881,137.387542 C115.735246,137.961916 115.293486,138.630797 114.981947,139.361864 C114.619186,140.220212 114.390521,141.128837 114.303901,142.056144 L125.04832,142.063566 Z" id="Shape" fill="#149CB5" fill-rule="nonzero"></path>
                    <path d="M129.007397,133.450681 L131.796234,133.450681 L132.084734,136.991909 L132.210491,136.991909 C132.817899,135.863274 133.662552,134.873934 134.688635,134.089263 C135.593939,133.385778 136.714608,133.00229 137.869536,133.000771 C138.600135,132.98843 139.325453,133.124308 140,133.399885 L139.341627,136.302531 C139.045911,136.205204 138.744548,136.125239 138.439139,136.063063 C138.099772,136.004332 137.755454,135.977602 137.410894,135.98324 C136.439321,136.025765 135.508878,136.380149 134.762609,136.991909 C133.658689,137.926124 132.830912,139.134126 132.365837,140.489597 L132.365837,153 L129,153 L129.007397,133.450681 Z" id="Shape" fill="#149CB5" fill-rule="nonzero"></path>
                </g>
            </g>
        </g>
    </g>
</svg>
